!!!SOCIAL_FUNCTION:	songs of games played in a ceremonial manner
!!!PDT:	1932
!!!OTL: No_6_A_Spirit_Woman_Gives_a_Name.krn
!!!REG: Wisconsin
!!!LANG: Non-Tone
!!!LING_GROUP: Algonquin
**kern
*staff1
=1-
*clefF4
*k[f#c#g#d#a#]
*M2/4
8c#\L
8c#\J
8.c#\L
16B\Jk
=2||
*M3/4
4B\
16B\
16r
8c#\
8B\L
8c#\J
=3||
*M2/4
[2B\
=4
4B\]
(8.B\L
16G#\Jk)
=5
2F#\
=6||
*M3/4
2F#\
4r
=7
8B\L
8B\J
[4B\
8.B\L]
16G#\Jk
=8||
*M2/4
4F#\
4F#\
=9
8r
8G#\
8F#\L
8G#\J
=10
[2F#\
=11
4F#\]
8F#\L
8D#\J
=12||
*M3/4
4BB/
4.BB/
8r
=13||
*M2/4
8C#/L
8C#/J
8.C#/L
16BB/Jk
=14||
*M3/4
4BB/
8BB/
16r
16C#/
8BB/L
8C#/J
=15
2BB/
8BB/L
8GG#/J
=16
4FF#/
4FF#/
4r
==
*-
